X: 1
T: Hakki's Polka
M: 4/4
L: 1/8
R: barndance
K: Dmaj
DE|:F2 A<F G2 B<G|A2 f<d A3 F|G2 B<G A,2 CE|D2 DE F2 DE|
F2 A<F G2 B<G|A2 f<d A3 F|G2 B<G A,2 C<E|1 D4 D2 DE:|2 D4 D2 fg||
a2 af d2 df|e2 ec A2 Ac|d2 de f2 ed|e(dcB) A2 (fg)|
a2 af d2 df|e2 ec A2 A<F|G2 B<G A,2 C<E|D4-D2 (fg)|
a2 af d2 df|e2 ec A2 Ac|d2 de f2 ed|e(dcB) A(GFE)|
F2 A<F G2 B<G|A2 f<d A3 F|G2 B<G A,2 C<E|D3-D3||
